X: 1326
T: The Black Haired Lass
R:Reel
N:Collected by F. O'Neill
B:O'Neill's 1326
Z:Transcribed by Trish O'Neil
M:C|
L:1/8
K:Amix
(ed)|c2AB cdec|d2gd BGGB|{d}cBAB cdec|dfec Aced|
{d}cBAB cdec|d2gd BGGB|{d}cBAB cdec|dfecA2||
(AB)|cdef{a}g2(eg)|fddf {a}gfed|cdef {a}gfeg|fdecA2(AB)|
cdef {a}gfeg|fddfe2(fg)|af{a}ge fdec|dfecA2|]


